packages/dnb-ui-lib/assets/icons/arrow_down.svg

<svg width="16" height="16" viewBox="0 0 16 16" fill="none" xmlns="http://www.w3.org/2000/svg">
<path d="M3.53033 9.21967C3.23744 8.92678 2.76256 8.92678 2.46967 9.21967C2.17678 9.51256 2.17678 9.98744 2.46967 10.2803L3.53033 9.21967ZM8 14.75L7.46967 15.2803C7.76256 15.5732 8.23744 15.5732 8.53033 15.2803L8 14.75ZM13.5303 10.2803C13.8232 9.98744 13.8232 9.51256 13.5303 9.21967C13.2374 8.92678 12.7626 8.92678 12.4697 9.21967L13.5303 10.2803ZM8.75 1.25C8.75 0.835786 8.41421 0.5 8 0.5C7.58579 0.5 7.25 0.835786 7.25 1.25H8.75ZM2.46967 10.2803L7.46967 15.2803L8.53033 14.2197L3.53033 9.21967L2.46967 10.2803ZM8.53033 15.2803L13.5303 10.2803L12.4697 9.21967L7.46967 14.2197L8.53033 15.2803ZM7.25 1.25V14.75H8.75V1.25H7.25Z" fill="black"/>
</svg>

<svg width="16" height="16" viewBox="0 0 16 16" fill="none" xmlns="http://www.w3.org/2000/svg"><path d="M3.53 9.22a.75.75 0 00-1.06 1.06l1.06-1.06zM8 14.75l-.53.53a.75.75 0 001.06 0L8 14.75zm5.53-4.47a.75.75 0 10-1.06-1.06l1.06 1.06zM8.75 1.25a.75.75 0 00-1.5 0h1.5zm-6.28 9.03l5 5 1.06-1.06-5-5-1.06 1.06zm6.06 5l5-5-1.06-1.06-5 5 1.06 1.06zM7.25 1.25v13.5h1.5V1.25h-1.5z" fill="#000"/></svg>
